media/ico/ico_nomicro.svg

<svg width="96" height="96" viewBox="0 0 96 96" fill="none" xmlns="http://www.w3.org/2000/svg">
<path d="M48 12C41.372 12 36 17.372 36 24V48C36 54.628 41.372 60 48 60C54.628 60 60 54.628 60 48V24C60 17.372 54.628 12 48 12ZM48 20C50.204 20 52 21.796 52 24V48C52 50.204 50.204 52 48 52C45.796 52 44 50.204 44 48V24C44 21.796 45.796 20 48 20ZM20 48C20 62.1012 30.4375 73.7329 44 75.6797V88H52V75.6797C54.8966 75.2542 57.6601 74.4062 60.2031 73.1719L54.0078 66.9766C52.0998 67.5806 50.108 68 48 68C36.956 68 28 59.044 28 48H20ZM69.6562 60L64 65.6562L72.4844 74.1406L64 82.625L69.6562 88.2812L78.1406 79.7969L86.625 88.2812L92.2812 82.625L83.7969 74.1406L92.2812 65.6562L86.625 60L78.1406 68.4844L69.6562 60Z" fill="#4F4AFF"/>
</svg>

<?xml version="1.0" encoding="utf-8"?>
<!-- Generator: Adobe Illustrator 28.0.0, SVG Export Plug-In . SVG Version: 6.00 Build 0)  -->
<svg version="1.1" id="Layer_1" xmlns="http://www.w3.org/2000/svg" xmlns:xlink="http://www.w3.org/1999/xlink" x="0px" y="0px"
	 viewBox="0 0 96 96" style="enable-background:new 0 0 96 96;" xml:space="preserve">
<style type="text/css">
	.st0{fill:#B3B3B3;}
</style>
<path class="st0" d="M48,12c-6.6,0-12,5.4-12,12v24c0,6.6,5.4,12,12,12s12-5.4,12-12V24C60,17.4,54.6,12,48,12z M48,20
	c2.2,0,4,1.8,4,4v24c0,2.2-1.8,4-4,4s-4-1.8-4-4V24C44,21.8,45.8,20,48,20z M20,48c0,14.1,10.4,25.7,24,27.7V88h8V75.7
	c2.9-0.4,5.7-1.3,8.2-2.5L54,67c-1.9,0.6-3.9,1-6,1c-11,0-20-9-20-20H20z M69.7,60L64,65.7l8.5,8.5L64,82.6l5.7,5.7l8.5-8.5l8.5,8.5
	l5.7-5.7l-8.5-8.5l8.5-8.5L86.6,60l-8.5,8.5L69.7,60z"/>
</svg>
